overrides/.icons/custom/credits.svg

<?xml version="1.0" encoding="UTF-8" standalone="no"?>
<svg
   viewBox="0 0 24 24"
   version="1.1"
   id="svg1"
   sodipodi:docname="credit2.svg"
   inkscape:version="1.3.1 (91b66b0783, 2023-11-16)"
   xmlns:inkscape="http://www.inkscape.org/namespaces/inkscape"
   xmlns:sodipodi="http://sodipodi.sourceforge.net/DTD/sodipodi-0.dtd"
   xmlns="http://www.w3.org/2000/svg"
   xmlns:svg="http://www.w3.org/2000/svg">
  <defs
     id="defs1" />
  <sodipodi:namedview
     id="namedview1"
     pagecolor="#505050"
     bordercolor="#eeeeee"
     borderopacity="1"
     inkscape:showpageshadow="0"
     inkscape:pageopacity="0"
     inkscape:pagecheckerboard="0"
     inkscape:deskcolor="#505050"
     inkscape:zoom="24.188944"
     inkscape:cx="9.2397583"
     inkscape:cy="14.490091"
     inkscape:window-width="1920"
     inkscape:window-height="1017"
     inkscape:window-x="1432"
     inkscape:window-y="727"
     inkscape:window-maximized="1"
     inkscape:current-layer="svg1" />
  <path
     d="m 12,2.5 c 0.66375,0 1.2,0.5585938 1.2,1.25 v 8.125 c 0,0.34375 0.27,0.625 0.6,0.625 0.33,0 0.6,-0.28125 0.6,-0.625 V 5 c 0,-0.6914062 0.53625,-1.25 1.2,-1.25 0.66375,0 1.2,0.5585938 1.2,1.25 v 6.875 c 0,0.34375 0.27,0.625 0.6,0.625 0.33,0 0.6,-0.28125 0.6,-0.625 V 7.5 c 0,-0.6914062 0.53625,-1.25 1.2,-1.25 0.66375,0 1.2,0.5585938 1.2,1.25 v 7.621093 c -0.44625,0.187501 -0.79875,0.582032 -0.9375,1.085938 l -0.33375,1.21875 -1.17,0.347657 C 17.2725,17.980469 16.8,18.632812 16.8,19.375 c 0,0.738281 0.46875,1.390625 1.1475,1.597657 C 16.815,21.929687 15.37125,22.5 13.8,22.5 h -0.72 c -2.235,0 -4.38375,-0.894532 -6,-2.5 L 2.865,15.820313 c -0.6,-0.59375 -0.6225,-1.585938 -0.0525,-2.210938 0.57,-0.625 1.5225,-0.648437 2.1225,-0.05469 l 2.26875,2.25 C 7.20375,15.746094 7.2,15.683593 7.2,15.625 V 5 C 7.2,4.3085938 7.73625,3.75 8.4,3.75 9.06375,3.75 9.6,4.3085938 9.6,5 v 6.875 c 0,0.34375 0.27,0.625 0.6,0.625 0.33,0 0.6,-0.28125 0.6,-0.625 V 3.75 C 10.8,3.0585938 11.33625,2.5 12,2.5 Z M 11.72625,15.257813 C 11.685,15.105468 11.55,15 11.4,15 c -0.15,0 -0.285,0.105468 -0.32625,0.257813 L 10.8,16.25 9.8475,16.535156 C 9.70125,16.578125 9.6,16.71875 9.6,16.875 c 0,0.15625 0.10125,0.296875 0.2475,0.339844 L 10.8,17.5 11.07375,18.492188 C 11.115,18.644532 11.25,18.75 11.4,18.75 c 0.15,0 0.285,-0.105468 0.32625,-0.257812 L 12,17.5 12.9525,17.214844 C 13.09875,17.171874 13.2,17.03125 13.2,16.875 c 0,-0.15625 -0.10125,-0.296875 -0.2475,-0.339844 L 12,16.25 Z M 3.9,7.1874999 5.71125,7.7265626 C 5.88375,7.7773436 6,7.9414062 6,8.1249998 6,8.3085938 5.88375,8.4726564 5.71125,8.5234374 L 3.9,9.0625001 3.3825,10.949218 C 3.33375,11.128907 3.17625,11.25 3,11.25 2.82375,11.25 2.66625,11.128907 2.6175,10.949218 L 2.1,9.0625001 0.28875,8.5234374 C 0.11625,8.4726564 0,8.3085938 0,8.1249998 0,7.9414062 0.11625,7.7773436 0.28875,7.7265626 L 2.1,7.1874999 2.6175,5.3007813 C 2.66625,5.1210938 2.82375,5 3,5 3.17625,5 3.33375,5.1210938 3.3825,5.3007813 Z m 18,11.2500001 1.81125,0.539063 C 23.88375,19.027343 24,19.191406 24,19.375 c 0,0.183594 -0.11625,0.347657 -0.28875,0.398437 L 21.9,20.3125 21.3825,22.199218 C 21.33375,22.378907 21.17625,22.5 21,22.5 c -0.17625,0 -0.33375,-0.121093 -0.3825,-0.300782 L 20.1,20.3125 18.28875,19.773437 C 18.11625,19.722657 18,19.558594 18,19.375 c 0,-0.183594 0.11625,-0.347657 0.28875,-0.398437 L 20.1,18.4375 20.6175,16.550782 C 20.66625,16.371093 20.82375,16.25 21,16.25 c 0.17625,0 0.33375,0.121093 0.3825,0.300782 z"
     id="path1-1"
     style="stroke-width:0.0382732" />
</svg>

<svg viewBox="0 0 24 24" xmlns="http://www.w3.org/2000/svg"><path d="M12 2.5c.664 0 1.2.559 1.2 1.25v8.125c0 .344.27.625.6.625.33 0 .6-.281.6-.625V5c0-.691.536-1.25 1.2-1.25.664 0 1.2.559 1.2 1.25v6.875c0 .344.27.625.6.625.33 0 .6-.281.6-.625V7.5c0-.691.536-1.25 1.2-1.25.664 0 1.2.559 1.2 1.25v7.621a1.643 1.643 0 0 0-.938 1.086l-.333 1.219-1.17.347c-.686.207-1.159.86-1.159 1.602 0 .738.469 1.39 1.147 1.598A6.399 6.399 0 0 1 13.8 22.5h-.72c-2.235 0-4.384-.895-6-2.5l-4.215-4.18a1.612 1.612 0 0 1-.052-2.21 1.461 1.461 0 0 1 2.122-.055l2.269 2.25c0-.059-.004-.121-.004-.18V5c0-.691.536-1.25 1.2-1.25.664 0 1.2.559 1.2 1.25v6.875c0 .344.27.625.6.625.33 0 .6-.281.6-.625V3.75c0-.691.536-1.25 1.2-1.25zm-.274 12.758A.343.343 0 0 0 11.4 15a.343.343 0 0 0-.326.258l-.274.992-.953.285a.353.353 0 0 0-.247.34c0 .156.101.297.247.34l.953.285.274.992a.343.343 0 0 0 .326.258c.15 0 .285-.105.326-.258L12 17.5l.953-.285a.353.353 0 0 0 .247-.34.353.353 0 0 0-.247-.34L12 16.25zM3.9 7.188l1.811.539c.173.05.289.214.289.398a.412.412 0 0 1-.289.398l-1.811.54-.518 1.886A.4.4 0 0 1 3 11.25a.4.4 0 0 1-.382-.3L2.1 9.062l-1.811-.54A.412.412 0 0 1 0 8.125c0-.184.116-.348.289-.398l1.811-.54.518-1.886A.4.4 0 0 1 3 5a.4.4 0 0 1 .382.3zm18 11.25 1.811.539c.173.05.289.214.289.398a.412.412 0 0 1-.289.398l-1.811.54-.517 1.886A.4.4 0 0 1 21 22.5a.4.4 0 0 1-.383-.3l-.517-1.887-1.811-.54a.412.412 0 0 1-.289-.398c0-.184.116-.348.289-.398l1.811-.54.517-1.886A.4.4 0 0 1 21 16.25a.4.4 0 0 1 .383.3z" style="stroke-width:.0382732"/></svg>
